X:1
T:Title
%%score ( 1 2 ) ( 3 4 )
L:1/8
Q:1/4=110
M:4/4
K:C
V:1 treble nm="Grand Piano, Soprano"
V:2 treble 
V:3 bass nm="Choir Pad, Erzurum, 12.12.12 D"
V:4 bass 
V:1
 G2 c2- c/ z/ G E2 | C2 G6 | [Ec]2 [Fd]2 [Fd]2 [Ec]2 | [DB]2 [Ec]6 | [CE][DF] [EG]2 [EG]2 [EG]2 | %5
w: By~John~Henry~Kurzenknabe,~1890 * * * *|||||
 [FA][EG] [DF]6 | [B,D][CE] [DF]2 [DF]2 [DF]2 | [EG][DF] [CE]6 | [CE][DF] [EG]2 [EG]2 [EG]2 | %9
w: ||||
 [Ec][GB] [FA]6 | [FA]2 [^FA]2 [FA]2 [FA]2 | .d2 z2 z4 | [FG]2 [EG]2 [Ec]2 [Ge]2 | %13
w: ||||
 [Gc]2 [FA]4 [Fd]2- | [Fd]2 [Ec]2 [Ec]2 [DB]2 | [FB]2 [Ec]6 | [Ed]2 [Gd]2 [Gd]2 [Gd]2 | %17
w: ||||
 [Gf]2 [Ge]6 | [Gc]2 [FA]2 [FA]2 [^Fd]2 | [Ac]2 [GB]4 [FA]2 | [FG]2 [EG]2 [Ec]2 [Ge]2 | %21
w: ||||
 [Gc]2 [FA]4 [Fd]2- | [Fd]2 [Ec]2 [Ec]2 [DB]2 | [FB]2 [Ec]6- | [Ec]2 z2 z4 |] %25
w: ||||
V:2
 x8 | x8 | x8 | x8 | x8 | x8 | x8 | x8 | x8 | x8 | x8 | A-[Ac] [GB]4 [FA]2 | x8 | x8 | x8 | x8 | %16
 x8 | x8 | x8 | x8 | x8 | x8 | x8 | x8 | x8 |] %25
V:3
 G,2 C2- C/ z/ G, E,2 | C,2 G,6 | [C,G,]2 [F,A,]2 [F,A,]2 G,2 | [G,,G,]2 [C,G,]6 | %4
 [C,G,]2 [C,C]2 [C,C]2 [C,C]2 | [C,C]2 [G,B,]6 | G,2 [G,,G,]2 [G,,G,]2 [G,,G,]2 | %7
 [G,,G,]2 [C,G,]6 | [C,G,]2 [C,C]2 [C,C]2 [C,C]2 | [E,C]2 [F,C]6 | [F,C]2 [D,D]2 [D,D]2 [D,D]2 | %11
 z2 D4 z2 | [G,B,]2 [C,C]2 [C,G,]2 [C,C]2 | [E,C]2 [F,C]4 [F,A,]2- | [F,A,]2 G,2 G,2 [G,,G,]2 | %15
 [G,,G,]2 [C,G,]6 | [C,G,]2 [G,B,]2 [G,B,]2 [G,B,]2 | [G,D]2 C6 | [E,C]2 [F,C]2 [F,C]2 [D,D]2 | %19
 z2 D4 z2 | [G,B,]2 [C,C]2 [C,G,]2 [C,C]2 | [E,C]2 [F,C]4 [F,A,]2- | [F,A,]2 G,2 G,2 [G,,G,]2 | %23
 [G,,G,]2 [C,G,]6- | [C,G,]2 z2 z4 |] %25
V:4
 x8 | x8 | x8 | x8 | x8 | x8 | x8 | x8 | x8 | x8 | x8 | [^F,D]2 G,4- [G,B,]2 | x8 | x8 | x8 | x8 | %16
 x8 | x8 | x8 | [^F,D]2 G,4- [G,B,]2 | x8 | x8 | x8 | x8 | x8 |] %25

